X:1
T:Aestimatus sum
T:Annibale Zoilo arr satb, edit BMarble
T:Aestimatus sum
T:Copyright © 2015 by CPDL.  This edition can be fully distributed, duplicated, performed, and recorded. 
T:Copyright © 2015 by CPDL.  This edition can be fully distributed, duplicated, performed, and recorded. 
T:Copyright © 2015 by CPDL.  This edition can be fully distributed, duplicated, performed, and recorded. 
T:Copyright © 2015 by CPDL.  This edition can be fully distributed, duplicated, performed, and recorded. 
C:Annibale Zoilo
C:arr satb, edit BMarble
Z:Copyright © 2015 by CPDL.  This edition can be fully distributed, duplicated, performed, and recorded.
Z:
%%score [ 1 2 3 4 ]
L:1/8
Q:1/2=80
M:4/2
K:G
V:1 treble nm="Soprano" snm="S."
V:2 treble nm="Alto" snm="A."
V:3 treble-8 transpose=-12 nm="Tenor" snm="T."
V:4 bass nm="Bass" snm="B."
V:1
"^Palm 87: I am counted among those that go down into the pit: I am as a man without support: cast off among the dead.Verse: You cast me into the bottom of the pit,into the darkness of the anyss.." A16 | %1
w: Ae-|
 A8 A8- | A4 ^G4 G8 | z16 | z16 | c8 B6 A2 | G4 F4 E4 D4 | C8 B,8 ||S z8 B,8 | E8 E8 | G12 F4 | %11
w: sti- ma-|* tus- sum-|||cum- de- scen-|den- ti- bus- in-|la- cum:-|Fa-|ctus- sum-|si- cut-|
 (E8 A8) | ^G4 =G8 G4 ||[M:3/1] ^F4 E4 F4 F4 E8 ||[M:4/2] z4 D8 E4 | (=F6 E2 D4) C4 | =F16 | E16- | %18
w: ho- *|mo- si- ne-|ad- ju- to- ri- o,-|in- ter-|mor- * * tu-|os|li-|
 E16 | E16!fine! |][Q:1/2=92][Q:1/2=92] z16 | z16 | z16 | z16 | z16 | z16 | z16 | z16 | z16 | z16 | %30
w: |ber.-|||||||||||
 z16 | z16 | z16 | z16 | z16 |] %35
w: |||||
V:2
 E16 | =F8 E8- | E4 E4 E8 | =F8 E6 D2 | C4 B,4 A,4 G,4- | G,4 F,4 (G,6 A,2 | B,8) E,8 | %7
w: Ae-|sti- ma-|* tus- sum-|cum- de- scen-|den- ti- bus- in|_ la- cum, _|_ in-|
 E,12 ^D,4 || z8 G,8- | G,4 G,4 G,8 | C12 A,4 | (G,8 A,8) | B,4 C4 B,4 C4 || %13
w: la- cum:-|Fa-|* ctus- sum-|si- cut-|ho- *|mo- si- ne- ad-|
[M:3/1] D4 E8 ^D4 (E6 F2 ||[M:4/2] G16) | z4 A,8 C4 | (D6 C2 B,4) A,4 | (^G,6 A,2 B,4 C4) | %18
w: ju- to- ri- o, _|_|in- ter-|mor- * * tu-|os _ _ _|
 (B,4 A,8 ^G,4) | A,16 |] A,12 B,4 | C2 B,2 C2 D2 E2 F2 G4- | G2 F2 E2 D2 C4 B,4 | A,8 z4 E4 | %24
w: li- * *|ber.-|Po- su-|e- * * * * * *|* * * * * runt-|me- in-|
 =F8 E4 D4 | E4 G4 G2 F2 E2 D2 | C2 B,2 A,2 G,2 A,2 B,2 C2 B,2 | C2 D2 E8 ^D4 | E16 | z4 G4 G4 A4 | %30
w: la- cu- in-|fe- ri- o- * * *|||ri,-|in- te- ne-|
 B8 G4 A4- | A4 F4 G8 | E4 =F6 E2 D2 C2 | D2 C2 B,2 A,2 B,8 | A,16 |] %35
w: bro- sis,- et|_ in- um-|bra- mor- * * *||tis.|
V:3
 ^c16 | d8 =c8- | c4 B4 B8 | z4 c4 B6 A2 | G4 F4 E4 D4- | D4 C4 D8 | d8 (c6 B2 | A8) F8 || z8 E8 | %9
w: Ae-|sti- ma-|* tus- sum-|cum- de- scen-|den- ti- bus- in|_ la- cum,-|in- la- *|* cum:-|Fa-|
 B8 B8 | e12 d4 | c2 B2 e6 dc d4 | e8 z8 ||[M:3/1] z24 ||[M:4/2] z4 B8 B4 | (c6 B2 A4) G4 | %16
w: ctus- sum-|si- cut-|ho- * * * * *|mo-||in- ter|mor- * * tu-|
 A8 d6 c2 | B4 A4 ^G4 A4 | B4 c4 B8 | ^c16 |] z16 | A12 B4 | c2 B2 c2 d2 e2 f2 g4 | %23
w: os- li- *|||ber.-||Po- su-|e- * * * * * *|
 =f4 (e6 d2 c2 B2 | A8) z4 B4 | c8 B4 G4 | A4 c4 c2 B2 A2 G2 | A2 G2 F2 E2 F8 | E8 z4 A4 | %29
w: runt- me _ _ _|_ in-|la- cu- in-|fe- ri- o- * * *||ri,- in-|
 A4 B4 c8 | d4 e8 c4 | d8 B4 c4- | c2 B2 A2 G2 A4 B4- | B2 A2 A8 ^G4 | A16 |] %35
w: te- ne- bro-|sis,- et- in-|um- bra- mor-|* * * * tis, mor-||tis.-|
V:4
 A,16 | D,8 A,8- | A,4 E,4 E,8 | z4 A,4 =G,6 ^F,2 | E,4 D,4 C,4 B,,4 | A,,8 G,,8 | G,,8 A,,8- | %7
w: Ae-|sti- ma-|* tus- sum-|cum de- scen-|den- ti- bus- in-|la- cum,-|in- la-|
 A,,8 B,,8 || z8 E,8- | E,4 E,4 E,8 | C,12 D,4 | (E,8 =F,8) | E,8 z8 ||[M:3/1] z24 || %14
w: * cum:-|Fa-|* ctus- sum-|si- cut-|ho- *|mo-||
[M:4/2] z4 G,8 E,4 | (A,6 G,2 =F,4) E,4 | D,16 | E,16- | E,16 | A,,16 |] z16 | z16 | z16 | z16 | %24
w: in- ter|mor- * * tu-|os|li-||ber.|||||
 z16 | z16 | z16 | z16 | z16 | z16 | z16 | z16 | z16 | z16 | z8 z8 |] %35
w: |||||||||||

